X: 1
T: da Full Rigged Ship #1
R: air, jig
Z: Dan Mozell <dan.mozell:nashville.COM>
M: 6/8
L: 1/8
K: Am
|:\
"Am"e2a aea | aea "G"b2a | "Em"e2^f "C"g2g | gag "D"^f2d |\
"Am"e2a aea | aea "G"b2a | "Em"g2e edB | "Am"A3 A3 :|
|:\
"Am"efe edB | A2B "C"c3 | "G"B2G B2G | "G"Bcd "Em"E3 |\
"Am"efe edB | A2B "C"c2d | "Em"efe dBG | "Am"A3 A3 :|
|:\
"Em"EGE EGE | EGE "C"c3 | "Am"EGE E2D | "C"E2F GEC |\
"Em"EGE EGE | EGE "C"c2d | "Em"efe dBG | "Am"A3 A3 :|
